build/img/icon-less.svg

<svg width="69" height="36" viewBox="0 0 69 36" fill="none" xmlns="http://www.w3.org/2000/svg">
  <path d="M66.4267 14.6343C66.0982 13.8691 65.9394 12.9635 65.9054 12.1111C65.8211 10.0131 65.8928 7.90754 65.8046 5.80961C65.7258 3.93084 65.1026 2.23765 63.4258 1.2691C61.9494 0.416617 60.2381 0.331781 58.5952 0.31175V3.66455C59.1429 3.68458 59.0081 3.70284 59.1418 3.7105C61.3481 3.82715 62.0874 4.58007 62.1153 6.93487C62.1361 8.6858 62.1219 10.4379 62.1482 12.1882C62.1805 14.3121 62.4751 16.3393 64.2806 17.6802C64.3113 17.7032 64.3085 17.7874 64.3261 17.8852C63.4072 18.5875 62.6799 19.4918 62.4685 20.7261C62.2982 21.7247 62.2019 22.7468 62.1728 23.7619C62.1203 25.5988 62.1745 27.4399 62.1257 29.2768C62.0874 30.7155 61.4538 31.3907 60.1521 31.7112C59.662 31.8325 59.1429 31.8755 58.5952 31.9504V35.2949C59.6905 35.2242 60.2474 35.1777 60.9976 35.0905C63.8212 34.7618 65.4109 33.1811 65.7367 30.2342C65.8386 29.3104 65.8271 28.369 65.8463 27.4358C65.8824 25.6866 65.8638 23.9292 66.0095 22.1907C66.1579 20.4168 67.3571 19.4364 69 19.5342V16.0283C67.9048 16.2392 66.8955 15.7296 66.4267 14.6343V14.6343ZM14.9577 21.7824C14.9571 14.9784 14.7857 8.17442 14.7857 1.37103V0.300556C13.1429 0.300556 11.3762 0.283471 9.64302 0.308804C8.93933 0.318819 8.31888 0.383624 7.62121 0.486135C4.95048 0.877324 3.66302 2.22587 3.18988 5.0885C3.05298 5.91448 3.08036 6.77285 3.06886 7.61768C3.0475 9.22368 3.09021 10.8303 3.06612 12.4357C3.036 14.4576 2.1505 16.0247 0.233833 16.1437C0.165929 16.1478 0.547619 16.2321 0 16.2828V19.4082C2.19048 19.7781 2.8876 20.7296 3.03326 22.9188C3.05626 23.2676 3.06229 23.6193 3.06557 23.9699C3.08419 25.9258 3.06338 27.8847 3.14552 29.8371C3.22274 31.6593 3.59895 33.2877 5.19964 34.2439C6.69464 35.137 8.7619 35.2095 9.85714 35.256V31.9191C9.85714 31.8909 9.74214 31.8649 9.63536 31.8579C7.25924 31.7018 6.72367 31.0077 6.70943 28.4497C6.70012 26.7559 6.76748 25.0621 6.74229 23.3684C6.71052 21.2404 6.42138 19.222 4.63067 17.8752C4.60329 17.8546 4.63012 17.7674 4.62136 17.6496C5.82557 16.8307 6.46574 15.5782 6.63988 14.0593C6.73626 13.2216 6.76857 12.372 6.78226 11.5266C6.80964 9.77512 6.78062 8.02183 6.82498 6.2715C6.85619 5.04137 7.58617 4.1447 8.51767 3.94321C9.40043 3.75174 9.85714 3.75763 11.5 3.66867V4.87995C11.5 10.954 11.299 17.0274 11.3286 23.1015C11.339 25.1817 11.5531 27.2325 13.6259 28.131C14.7529 28.6194 15.9604 28.7696 17.2549 29.0983C17.4712 27.7362 17.5419 26.6063 17.7188 25.4881C15.3328 24.7517 14.9577 24.3699 14.9577 21.7824V21.7824ZM29.5649 10.0626C25.5453 7.99473 20.6671 9.80281 18.7954 14.1401C17.3858 17.4063 17.4362 20.7679 18.6771 24.08C19.3501 25.8757 20.5664 27.2202 22.2218 28.0108C25.455 29.5549 28.727 29.1796 31.987 28.0956C32.1628 28.0367 32.3873 27.6726 32.3659 27.4794C32.2548 26.5008 32.0702 25.5317 31.9054 24.5213C31.1294 24.7316 30.481 24.9467 29.8184 25.0804C28.0677 25.4345 26.3131 25.4339 24.6095 24.7051C22.9272 23.9864 21.7974 21.9185 22.0784 20.1511H33.5083C33.6479 18.3836 33.5926 15.9534 32.8933 13.9439C32.269 12.1476 31.1913 10.8998 29.5649 10.0626V10.0626ZM29.5408 17.2059H22.0296C22.0335 14.8494 23.817 12.7344 26.157 12.7827C28.2122 12.8251 29.6339 14.8494 29.5408 17.2059ZM60.2666 24.44C60.536 21.4625 59.7003 19.787 57.236 18.4932C56.362 18.0343 55.4344 17.6943 54.544 17.269C53.8775 16.9508 53.2067 16.6286 52.5835 16.2256C51.9767 15.8338 51.7226 15.1834 51.8124 14.4217C51.9006 13.6693 52.3502 13.1733 52.9997 13.0319C53.7866 12.8599 54.6113 12.7126 55.4026 12.7821C56.5209 12.8805 57.6238 13.1886 58.7776 13.4154L59.507 9.9878C57.9458 9.73211 56.4902 9.4016 55.0193 9.2767C53.3835 9.13826 51.7905 9.43047 50.2933 10.2606C47.1297 12.0144 47.0717 17.3986 49.979 19.166C50.8475 19.6939 51.7768 20.1063 52.6804 20.5682C53.6316 21.0554 54.6173 21.479 55.5275 22.0434C56.2186 22.4717 56.4655 23.2193 56.2805 24.0906C56.109 24.9007 55.539 25.2619 54.8692 25.3308C53.8507 25.4351 52.8058 25.5352 51.7976 25.4062C50.5836 25.2507 49.3952 24.8542 48.1516 24.5514L47.5175 27.9625C50.4379 29.1419 53.3277 29.3352 56.2454 28.6394C58.6872 28.0573 60.0782 26.5208 60.2666 24.44V24.44ZM44.706 18.8714C43.6332 18.2593 42.4794 17.8128 41.3721 17.2672C40.6848 16.9285 39.957 16.6345 39.3514 16.1649C38.1866 15.2618 38.4034 13.5303 39.7599 13.0672C40.538 12.8009 41.4181 12.7185 42.2357 12.7844C43.3495 12.8746 44.4486 13.1845 45.6101 13.4107L46.299 10.1433C45.7092 9.97071 45.1753 9.78277 44.6282 9.65905C42.4536 9.16653 40.2675 8.97565 38.1258 9.78572C36.2858 10.4821 35.0093 11.7841 34.7568 13.9745C34.4743 16.4206 35.2283 18.3518 37.3285 19.5136C38.169 19.979 39.0699 20.3166 39.928 20.7479C40.7845 21.1779 41.659 21.5886 42.4547 22.1282C43.0631 22.5406 43.303 23.2387 43.1316 24.0459C42.9613 24.8459 42.4191 25.2489 41.7445 25.3237C40.7259 25.4362 39.6805 25.5405 38.6718 25.4139C37.4528 25.2607 36.2606 24.863 34.995 24.5567C34.8083 25.5069 34.5893 26.4643 34.4529 27.4346C34.4233 27.6455 34.6418 28.0508 34.8258 28.1198C37.7742 29.2191 40.7752 29.377 43.7739 28.4267C45.5646 27.86 46.817 26.6292 47.0695 24.5248C47.3559 22.1359 46.8264 20.0804 44.706 18.8714V18.8714Z" fill="#2A4D80"/>
</svg>

<svg width="69" height="36" fill="none" xmlns="http://www.w3.org/2000/svg"><path d="M66.427 14.634c-.329-.765-.488-1.67-.522-2.523-.084-2.098-.012-4.203-.1-6.301-.08-1.88-.702-3.572-2.38-4.54-1.476-.853-3.187-.938-4.83-.958v3.353c.548.02.413.038.547.046 2.206.116 2.945.87 2.973 3.224.021 1.75.007 3.503.033 5.253.032 2.124.327 4.151 2.133 5.492.03.023.027.107.045.205-.919.702-1.646 1.607-1.857 2.841-.17.999-.267 2.02-.296 3.036-.053 1.837.002 3.678-.047 5.515-.039 1.438-.672 2.114-1.974 2.434-.49.122-1.01.165-1.557.24v3.344a41.933 41.933 0 002.403-.205c2.823-.328 4.413-1.909 4.739-4.856.102-.924.09-1.865.11-2.798.035-1.75.017-3.507.163-5.245.148-1.774 1.347-2.755 2.99-2.657v-3.506c-1.095.211-2.105-.298-2.573-1.394zm-51.47 7.148c0-6.804-.171-13.608-.171-20.411V.301c-1.643 0-3.41-.018-5.143.008-.704.01-1.324.075-2.022.177-2.67.391-3.958 1.74-4.431 4.603-.137.825-.11 1.684-.121 2.529-.022 1.606.021 3.212-.003 4.818-.03 2.022-.915 3.589-2.832 3.708-.068.004.314.088-.234.139v3.125c2.19.37 2.888 1.322 3.033 3.51.023.35.03.701.033 1.052.018 1.956-.003 3.915.08 5.867.077 1.822.453 3.45 2.054 4.407 1.495.893 3.562.965 4.657 1.012v-3.337c0-.028-.115-.054-.222-.061-2.376-.156-2.911-.85-2.926-3.408-.009-1.694.058-3.388.033-5.082-.031-2.128-.32-4.146-2.111-5.493-.028-.02 0-.108-.01-.225 1.205-.82 1.845-2.072 2.019-3.59a25.86 25.86 0 00.142-2.533c.028-1.752-.001-3.505.043-5.255.031-1.23.761-2.127 1.693-2.329.882-.191 1.34-.185 2.982-.274V4.88c0 6.074-.201 12.147-.171 18.221.01 2.08.224 4.132 2.297 5.03 1.127.488 2.334.639 3.629.967.216-1.362.287-2.492.464-3.61-2.386-.736-2.761-1.118-2.761-3.706zm14.608-11.72c-4.02-2.067-8.898-.26-10.77 4.078-1.41 3.266-1.359 6.628-.118 9.94.673 1.796 1.89 3.14 3.545 3.93 3.233 1.545 6.505 1.17 9.765.086.176-.06.4-.423.379-.617-.111-.978-.296-1.947-.46-2.958-.777.21-1.425.426-2.088.56-1.75.354-3.505.353-5.209-.376-1.682-.719-2.812-2.786-2.53-4.554h11.43c.139-1.767.084-4.198-.616-6.207-.624-1.796-1.702-3.044-3.328-3.881zm-.024 7.144H22.03c.003-2.357 1.787-4.472 4.127-4.423 2.055.042 3.477 2.066 3.384 4.423zm30.726 7.234c.269-2.978-.567-4.653-3.031-5.947-.874-.459-1.802-.799-2.692-1.224-.666-.318-1.337-.64-1.96-1.043-.607-.392-.861-1.043-.772-1.804.089-.753.538-1.249 1.188-1.39.787-.172 1.611-.32 2.403-.25 1.118.098 2.22.407 3.375.633l.729-3.427c-1.561-.256-3.017-.586-4.488-.711-1.636-.139-3.228.153-4.726.984-3.163 1.753-3.221 7.138-.314 8.905.868.528 1.798.94 2.701 1.402.952.487 1.937.911 2.848 1.475.69.429.938 1.176.753 2.048-.172.81-.742 1.17-1.412 1.24-1.018.104-2.063.204-3.071.075-1.214-.155-2.403-.552-3.646-.855l-.635 3.412c2.92 1.179 5.81 1.372 8.728.676 2.442-.582 3.833-2.118 4.022-4.199zm-15.561-5.569c-1.073-.612-2.227-1.058-3.334-1.604-.687-.338-1.415-.633-2.02-1.102-1.165-.903-.949-2.635.408-3.098.778-.266 1.658-.348 2.476-.283 1.114.09 2.213.4 3.374.627l.689-3.268c-.59-.172-1.124-.36-1.67-.484-2.175-.492-4.361-.683-6.503.127-1.84.696-3.117 1.998-3.37 4.189-.282 2.446.472 4.377 2.572 5.539.841.465 1.742.803 2.6 1.234.857.43 1.731.84 2.527 1.38.608.413.848 1.11.677 1.918-.17.8-.713 1.203-1.387 1.278-1.02.112-2.064.216-3.073.09-1.22-.153-2.411-.551-3.677-.857-.187.95-.406 1.907-.542 2.878-.03.21.189.616.373.685 2.948 1.1 5.95 1.257 8.948.307 1.79-.567 3.043-1.798 3.295-3.902.287-2.39-.243-4.445-2.363-5.654z" fill="#2A4D80"/></svg>
